packages/icons/svg/Fill/link.svg

<svg fill="none" height="24" viewBox="0 0 24 24" width="24" xmlns="http://www.w3.org/2000/svg"><path clip-rule="evenodd" d="m9.00005 16h-1.79c-2.10601 0-4.00601-1.535-4.19301-3.634-.213-2.37 1.656-4.366 3.983-4.366h2.00001c.552 0 .99995-.447.99995-1s-.44795-1-.99995-1h-1.79101c-3.049 0-5.77 2.187-6.158 5.211-.468996 3.658 2.381 6.789 5.949 6.789h2.00001c.552 0 .99995-.447.99995-1s-.44795-1-.99995-1zm-1.00003-3.9999c0 .553.448 1 1 1h5.99998c.552 0 1-.447 1-1s-.448-1-1-1h-5.99998c-.552 0-1 .447-1 1zm8.75918-5.9999c3.067 0 5.819 2.197 6.194 5.242.449 3.646-2.395 6.758-5.953 6.758h-2c-.552 0-1-.447-1-1s.448-1 1-1h2c2.327 0 4.196-1.996 3.983-4.366-.187-2.099-2.087-3.634-4.194-3.634h-1.789c-.552 0-1-.447-1-1s.443-1 1.249-1z" fill="#6b7280" fill-rule="evenodd"/></svg>

<svg width="24" height="24" viewBox="0 0 24 24" fill="none" xmlns="http://www.w3.org/2000/svg">
<g id="Icon/Fill/link">
<path id="Mask" fill-rule="evenodd" clip-rule="evenodd" d="M8.99991 16H7.20991C5.10391 16 3.20391 14.465 3.01691 12.366C2.80391 9.996 4.67291 8 6.99991 8H8.99991C9.55191 8 9.99991 7.553 9.99991 7C9.99991 6.447 9.55191 6 8.99991 6H7.20891C4.15991 6 1.43891 8.187 1.05091 11.211C0.581907 14.869 3.43191 18 6.99991 18H8.99991C9.55191 18 9.99991 17.553 9.99991 17C9.99991 16.447 9.55191 16 8.99991 16ZM7.99991 12C7.99991 12.553 8.44791 13 8.99991 13H14.9999C15.5519 13 15.9999 12.553 15.9999 12C15.9999 11.447 15.5519 11 14.9999 11H8.99991C8.44791 11 7.99991 11.447 7.99991 12ZM16.759 6.0002C19.826 6.0002 22.578 8.1972 22.953 11.2422C23.402 14.8882 20.558 18.0002 17 18.0002H15C14.448 18.0002 14 17.5532 14 17.0002C14 16.4472 14.448 16.0002 15 16.0002H17C19.327 16.0002 21.196 14.0042 20.983 11.6342C20.796 9.5352 18.896 8.0002 16.789 8.0002H15C14.448 8.0002 14 7.5532 14 7.0002C14 6.4472 14.443 6.0002 15.249 6.0002H16.759Z" fill="#000000"/>
</g>
</svg>
